src/assets/signals/price.svg

<svg width="33" height="31" viewBox="0 0 33 31" fill="none" xmlns="http://www.w3.org/2000/svg">
<path d="M2 6.5L4 8H28V29H6C3.79086 29 2 27.2091 2 25V6.5Z" fill="#E7EAF3"/>
<path d="M22 18.5C22 17.1193 23.1193 16 24.5 16H31V21H24.5C23.1193 21 22 19.8807 22 18.5Z" fill="white"/>
<path fill-rule="evenodd" clip-rule="evenodd" d="M4.5 0.75C2.42879 0.75 0.75 2.42879 0.75 4.5V25.5C0.75 28.1232 2.87679 30.25 5.5 30.25H28.5C28.9142 30.25 29.25 29.9142 29.25 29.5V22.25H31.5C31.9142 22.25 32.25 21.9142 32.25 21.5V15.5C32.25 15.0858 31.9142 14.75 31.5 14.75H29.25V7.5C29.25 7.08579 28.9142 6.75 28.5 6.75H4.5C3.25721 6.75 2.25 5.74279 2.25 4.5C2.25 3.25721 3.25721 2.25 4.5 2.25H21.75V3.5C21.75 3.91421 22.0858 4.25 22.5 4.25C22.9142 4.25 23.25 3.91421 23.25 3.5V1.5C23.25 1.08579 22.9142 0.75 22.5 0.75H4.5ZM4.5 8.25C3.72329 8.25 3.00178 8.01392 2.40328 7.6096C2.35124 7.57444 2.30013 7.53802 2.25 7.50036V25.5C2.25 27.2948 3.70521 28.75 5.5 28.75H27.75V22.25H24.5C22.4288 22.25 20.75 20.5712 20.75 18.5C20.75 16.4288 22.4288 14.75 24.5 14.75H27.75V8.25H4.5ZM30.75 20.75H24.5C23.2572 20.75 22.25 19.7428 22.25 18.5C22.25 17.2572 23.2572 16.25 24.5 16.25H30.75V20.75Z" fill="#181B2B"/>
</svg>

<svg width="33" height="31" fill="none" xmlns="http://www.w3.org/2000/svg"><path d="M2 6.5L4 8h24v21H6a4 4 0 0 1-4-4V6.5z" fill="#E7EAF3"/><path d="M22 18.5a2.5 2.5 0 0 1 2.5-2.5H31v5h-6.5a2.5 2.5 0 0 1-2.5-2.5z" fill="#fff"/><path fill-rule="evenodd" clip-rule="evenodd" d="M4.5.75A3.75 3.75 0 0 0 .75 4.5v21a4.75 4.75 0 0 0 4.75 4.75h23a.75.75 0 0 0 .75-.75v-7.25h2.25a.75.75 0 0 0 .75-.75v-6a.75.75 0 0 0-.75-.75h-2.25V7.5a.75.75 0 0 0-.75-.75h-24a2.25 2.25 0 1 1 0-4.5h17.25V3.5a.75.75 0 0 0 1.5 0v-2a.75.75 0 0 0-.75-.75h-18zm0 7.5a3.733 3.733 0 0 1-2.25-.75v18a3.25 3.25 0 0 0 3.25 3.25h22.25v-6.5H24.5a3.75 3.75 0 1 1 0-7.5h3.25v-6.5H4.5zm26.25 12.5H24.5a2.25 2.25 0 1 1 0-4.5h6.25v4.5z" fill="#181B2B"/></svg>
